frontend/public/svg/interface/zap.svg

<svg width="106" height="155" viewBox="0 0 106 155" fill="none" xmlns="http://www.w3.org/2000/svg">
<g clip-path="url(#clip0)">
<path d="M29.9801 99.6718C25.9694 111.25 21.7567 122.977 17.6831 134.318C16.1595 138.559 14.6381 142.8 13.1188 147.041C12.2587 149.449 11.5771 152.176 14.4031 154.081C15.1805 154.645 16.112 154.958 17.0735 154.98C18.8423 154.98 20.3793 153.811 21.708 152.537C24.2358 150.122 26.8472 147.704 29.375 145.368C35.0139 140.152 40.8474 134.759 46.1123 129.006C55.2428 119.03 64.1887 108.588 72.8407 98.4899C76.2831 94.4728 79.7325 90.4616 83.1865 86.4567C88.7696 80.0075 94.4195 73.4296 99.8834 67.0675L103.327 63.0589C105.009 61.1014 106.399 58.8998 105.19 56.0614C104.011 53.2953 101.56 52.8568 99.0901 52.7948C93.9814 52.6682 88.874 52.5313 83.7666 52.3841C80.2342 52.285 76.7018 52.188 73.17 52.0933C72.2276 52.0681 71.2943 52.0747 70.2164 52.0812L69.4146 52.0856C69.5118 51.8027 69.6039 51.5303 69.6933 51.2687C70.0368 50.2567 70.3344 49.3827 70.6656 48.5348C72.2146 44.55 73.7663 40.5662 75.3218 36.5831C78.3681 28.7685 81.522 20.6897 84.5852 12.7285C85.466 10.4306 86.1712 8.06956 86.6943 5.66569C86.8472 5.13061 86.8861 4.56956 86.8077 4.01871C86.7293 3.46786 86.5368 2.93951 86.2412 2.46759C85.9249 2.05423 85.523 1.71279 85.0642 1.46612C84.6046 1.21945 84.0978 1.07315 83.5773 1.03701C82.9454 0.953699 82.3141 0.855545 81.6828 0.757379C80.0157 0.454569 78.3286 0.280517 76.635 0.236816H76.5799C68.8579 0.262649 61.0078 0.350502 53.4173 0.434461C48.9399 0.483974 44.4627 0.529837 39.9853 0.572031C33.905 0.623052 33.0728 1.22759 31.0745 7.03881C30.8723 7.62845 30.6489 8.25484 30.3903 8.84707L25.4058 20.2558C20.183 32.2244 14.7824 44.5992 9.42547 56.7499C8.38455 59.1143 7.24732 61.4897 6.14741 63.7863C4.90102 66.3894 3.61237 69.0819 2.45284 71.7808C0.864876 75.4705 0.631518 77.8743 1.69772 79.5773C2.76392 81.2804 5.01261 82.1167 9.00586 82.3169L13.8929 82.5585C17.0247 82.7122 20.1563 82.8704 23.2873 83.0332C25.909 83.1733 28.529 83.3316 31.3011 83.4982L34.4773 83.6881C34.043 85.2781 33.6348 86.8591 33.2329 88.3942C32.2114 92.317 31.2453 96.0222 29.9801 99.6718ZM60.2298 53.2249C59.7923 55.4137 59.9792 56.9261 60.8134 57.986C61.6475 59.0458 63.0477 59.567 65.2359 59.6574C71.3792 59.91 77.6254 60.0623 83.6668 60.2102C86.0623 60.2683 88.4579 60.3288 90.8534 60.3917H91.0096C91.3441 60.3919 91.6772 60.4168 92.0071 60.466C85.4544 68.0221 79.0234 75.8554 72.798 83.4413C59.2444 99.9572 45.2476 117.012 29.3466 131.918C29.974 130.027 30.6064 128.137 31.2441 126.249C33.3182 120.083 35.4576 113.708 37.3028 107.355C38.8616 101.984 40.1034 96.4342 41.3044 91.0673C41.771 88.9832 42.2374 86.8998 42.7216 84.8215C42.9358 83.8011 43.041 82.7606 43.0349 81.7176C43.0997 76.6155 41.4011 74.866 36.2989 74.7904C30.7592 74.7084 25.1277 74.6832 19.6813 74.6612C17.4543 74.6516 15.2275 74.6406 13.0005 74.6283C12.55 74.6283 12.1006 74.6251 11.6029 74.6251H9.61791C11.0944 71.4779 12.5731 68.3463 14.0531 65.2301C23.3488 45.5924 32.1322 27.0376 38.3966 7.27964H78.3053C78.2515 7.45078 78.2009 7.61224 78.1536 7.76466C77.9397 8.45376 77.7855 8.9517 77.5897 9.42639C75.8656 13.6213 74.1383 17.8147 72.4084 22.0066C69.1029 30.0285 65.6813 38.323 62.3502 46.496C61.4296 48.6664 60.7194 50.9197 60.2298 53.2249Z" fill="black"/>
</g>
<defs>
<clipPath id="clip0">
<rect width="105" height="155" fill="white" transform="translate(0.777344)"/>
</clipPath>
</defs>
</svg>

<svg xmlns="http://www.w3.org/2000/svg" width="106" height="155" fill="none" viewBox="0 0 106 155"><g clip-path="url(#a)"><path fill="#000" d="M29.98 99.672c-4.01 11.578-8.223 23.305-12.297 34.646q-2.285 6.362-4.564 12.723c-.86 2.408-1.542 5.135 1.284 7.04a4.73 4.73 0 0 0 2.67.899c1.77 0 3.306-1.169 4.635-2.443a637 637 0 0 1 7.667-7.169c5.639-5.216 11.472-10.609 16.737-16.362 9.13-9.976 18.077-20.418 26.729-30.516q5.164-6.025 10.346-12.033a6517 6517 0 0 0 16.696-19.39l3.444-4.008c1.682-1.958 3.072-4.16 1.863-6.998-1.179-2.766-3.63-3.204-6.1-3.266q-7.663-.19-15.323-.41-5.3-.15-10.597-.292c-.942-.025-1.876-.018-2.954-.012l-.801.005.278-.817c.344-1.012.641-1.886.973-2.734q2.323-5.977 4.656-11.952c3.046-7.814 6.2-15.893 9.263-23.854a48.6 48.6 0 0 0 2.11-7.063 3.96 3.96 0 0 0-.454-3.198 3.67 3.67 0 0 0-2.664-1.431 83 83 0 0 1-1.894-.28 33 33 0 0 0-5.048-.52h-.055C68.858.263 61.008.35 53.417.434Q46.702.51 39.985.572c-6.08.051-6.912.656-8.91 6.467-.203.59-.426 1.216-.685 1.808l-4.984 11.409A10619 10619 0 0 1 9.426 56.75c-1.041 2.364-2.179 4.74-3.279 7.036-1.246 2.603-2.535 5.296-3.694 7.995-1.588 3.69-1.821 6.093-.755 7.796s3.315 2.54 7.308 2.74l4.887.242q4.698.23 9.394.474c2.622.14 5.242.299 8.014.465l3.176.19c-.434 1.59-.842 3.171-1.244 4.706-1.022 3.923-1.988 7.628-3.253 11.278m30.25-46.447c-.438 2.189-.25 3.701.583 4.761.834 1.06 2.235 1.581 4.423 1.671 6.143.253 12.39.405 18.43.553q3.594.087 7.187.182h.157q.501 0 .997.074c-6.553 7.556-12.984 15.39-19.209 22.975-13.554 16.516-27.55 33.571-43.451 48.477q.941-2.837 1.897-5.669c2.074-6.166 4.214-12.541 6.059-18.894 1.559-5.371 2.8-10.92 4.001-16.288.467-2.084.933-4.167 1.418-6.245.214-1.02.319-2.061.313-3.104.065-5.103-1.634-6.852-6.736-6.928-5.54-.082-11.171-.107-16.618-.129q-3.34-.014-6.68-.033c-.451 0-.9-.003-1.398-.003H9.618q2.214-4.72 4.435-9.395c9.296-19.638 18.08-38.192 24.344-57.95h39.908l-.151.485c-.214.689-.368 1.187-.564 1.661a9479 9479 0 0 1-5.182 12.58c-3.305 8.023-6.727 16.317-10.058 24.49a37 37 0 0 0-2.12 6.729"/></g><defs><clipPath id="a"><path fill="#fff" d="M.777 0h105v155h-105z"/></clipPath></defs></svg>
